src/components/atoms/Icon/svgs/phone-off.svg

<svg width="24" height="24" viewBox="0 0 24 24" fill="none" xmlns="http://www.w3.org/2000/svg">
    <g clip-path="url(#clip0_210_1440)">
        <path
            d="M5.19006 12.81C3.50591 10.213 2.45441 7.25717 2.12006 4.18001C2.09507 3.90347 2.12793 3.62477 2.21656 3.36163C2.30518 3.09849 2.44763 2.85669 2.63482 2.65163C2.82202 2.44656 3.04986 2.28271 3.30385 2.17053C3.55783 2.05834 3.8324 2.00027 4.11006 2.00001H7.11006C7.59536 1.99523 8.06585 2.16708 8.43382 2.48354C8.80179 2.79999 9.04213 3.23945 9.11005 3.72001C9.23668 4.68007 9.47151 5.62273 9.81006 6.53001C9.9446 6.88793 9.97372 7.27692 9.89396 7.65089C9.81421 8.02485 9.62892 8.36812 9.36005 8.64001L8.09006 9.91001M10.6801 13.31C11.6949 14.3258 12.8419 15.2003 14.0901 15.91L15.3601 14.64C15.6319 14.3711 15.9752 14.1859 16.3492 14.1061C16.7231 14.0263 17.1121 14.0555 17.4701 14.19C18.3773 14.5286 19.32 14.7634 20.2801 14.89C20.7606 14.9579 21.2001 15.1983 21.5165 15.5662C21.833 15.9342 22.0048 16.4047 22.0001 16.89V19.89C22.0012 20.1685 21.9441 20.4442 21.8326 20.6994C21.721 20.9545 21.5574 21.1836 21.3521 21.3719C21.1469 21.5601 20.9046 21.7035 20.6408 21.7927C20.377 21.8819 20.0974 21.9151 19.8201 21.89C16.7429 21.5556 13.7871 20.5041 11.1901 18.82C9.98532 18.0551 8.86858 17.1597 7.86006 16.15L10.6801 13.31Z"
            stroke="currentColor" stroke-width="2" stroke-linecap="round" stroke-linejoin="round" />
        <path d="M23 1L1 23" stroke="currentColor" stroke-width="2" stroke-linecap="round" stroke-linejoin="round" />
    </g>
    <defs>
        <clipPath id="clip0_210_1440">
            <rect width="24" height="24" fill="white" />
        </clipPath>
    </defs>
</svg>

<svg viewBox="0 0 24 24" fill="none" xmlns="http://www.w3.org/2000/svg">
    <g clip-path="url(#clip0_210_1440)" stroke="currentColor" stroke-width="2" stroke-linecap="round" stroke-linejoin="round">
        <path d="M5.19 12.81a19.79 19.79 0 01-3.07-8.63A2 2 0 014.11 2h3a2 2 0 012 1.72c.127.96.362 1.903.7 2.81a2 2 0 01-.45 2.11L8.09 9.91m2.59 3.4a15.995 15.995 0 003.41 2.6l1.27-1.27a2 2 0 012.11-.45c.907.339 1.85.573 2.81.7a2 2 0 011.72 2v3a2.002 2.002 0 01-2.18 2 19.79 19.79 0 01-8.63-3.07 19.413 19.413 0 01-3.33-2.67l2.82-2.84z"/>
        <path d="M23 1L1 23"/>
    </g>
    <defs>
        <clipPath id="clip0_210_1440">
            <path fill="#fff" d="M0 0h24v24H0z"/>
        </clipPath>
    </defs>
</svg>
